X:1
T:Title
%%score { ( 1 3 ) | ( 2 4 ) }
L:1/8
M:4/4
K:F
V:1 treble nm="Grand Piano"
V:3 treble 
V:2 bass 
V:4 bass 
V:1
 z4 z2 z[Q:1/4=80] F/G/ |[M:3/4] A>_A =AF GA | [DFB]>[DFA] [DFB] [CEG]2 [CFA]/[CGB]/ | %3
 [Ac]>[Bd] [Ac][Ac] AF | FG A [EG]2 F/G/ | A>_A =AF GA | [DFB]>[DFA] [DFB] [CEG]2 [CFA]/[CGB]/ | %7
 [FAc]>[FBd] [FAc][FAc] [CFA][A,F] |[M:5/8] [CFA][A,CF][B,CG] [A,CF]2 |[M:1/8] [CAc] | %10
[M:3/4] [Af]4 z2 | [Ac]6 | [Ac]4 z2 |[M:5/8] [EG]-[EG]- [EG]3 |[M:1/8] A/[Ac]/ |[M:3/4] [Af]4 z2 | %16
 [Ac]6 | [FAc]>[CFA] [A,F][CFA] [A,CF][B,CG] |[M:5/8] F-F- F3 |] %19
V:2
 z4 z2 z [F,A,]/[F,B,F]/ |[M:3/4] [F,CF]>[F,=B,F] [F,CF][F,A,] [F,_B,F][F,CF] | %2
 B,,>B,, B,, C,2 F,/F,/ | [F,F]>[F,F] [F,F][F,F] [F,CF][F,A,] | %4
 [A,C][G,CE] [F,CF] [C,C]2 [F,A,]/[F,B,F]/ | [F,CF]>[F,=B,F] [F,CF][F,A,] [F,_B,F][F,CF] | %6
 B,,>B,, B,, C,2 F,/F,/ | F,>F, F,F, F,F, |[M:5/8] C,C,C, F,2 |[M:1/8] F, | %10
[M:3/4] [F,C]2 F,/F,/F, [F,D][F,E] | [F,F]2 F, F,2 F, | F,2 F,/F,/F, F,F, |[M:5/8] C,2 C, C,2 | %14
[M:1/8] [F,CF]/[F,C]/ |[M:3/4] [F,C]>F, F,F, [F,D][F,E] | [F,F]>F, F, F,2 F, | F,>F, F,C, C,C, | %18
[M:5/8] z2 B, A,2 |] %19
V:3
 x8 |[M:3/4] x6 | x6 | x6 | x6 | x6 | x6 | x6 |[M:5/8] x5 |[M:1/8] x |[M:3/4] z2 C/C/C [ce][Bd] | %11
 z2 F F2 [CFA] | C2 C/C/C [CGB][CFA] |[M:5/8] C2 C C2 |[M:1/8] x |[M:3/4] z z/ C/ CC [ce][Bd] | %16
 z z/ F/ F F2 [CFA] | x6 |[M:5/8] [A,C]2 D C2 |] %19
V:4
 x8 |[M:3/4] x6 | x6 | x6 | x6 | x6 | x6 | x6 |[M:5/8] x5 |[M:1/8] x |[M:3/4] x6 | x6 | x6 | %13
[M:5/8] x5 |[M:1/8] x |[M:3/4] x6 | x6 | x6 |[M:5/8] F,-F,- F,3 |] %19

